X:1
T:Ave Virgo Virginum, 76.76 D
T:Ave Virgo Virginum, 76.76 D
T:Johann Roh, 1544
T:Public Domain Courtesy of the Cyber Hymnal™
C:Johann Roh, 1544
Z:Public Domain
Z:Courtesy of the Cyber Hymnal™
%%score ( 1 2 ) ( 3 4 )
L:1/8
Q:1/4=115
M:4/4
K:F
V:1 treble 
V:2 treble 
V:3 bass 
V:4 bass 
V:1
 [CF]2 [CF]2 C2 C2 | [DF]2 [EG]2 [FA]4 | [Fd]4 [Ec]4 [FB]2 [FA]2 | G4 F4 | [CF]2 [CF]2 C2 C2 | %5
 [DF]2 [EG]2 [FA]4 | [Fd]4 [Fc]4 [DB]2 [FA]2 | G4 F4 | [Fc]4 [Fd]4 [Ec]2 [FB]2 | %9
 [FA]2 [FA]2 [EG]4 | [CA]4 [CG]2 [A,F]4 [CE]2 | D4 C4 | [A,F]2 [A,F]2 C2 C2 | [DF]2 [EG]2 [FA]4 | %14
 [Fd]4 [Fc]4 [B,B]2 [CA]2 | G4 [A,F]4 |] %16
V:2
 x4 C2 C2 | x8 | x12 | (F2 E2) F4 | x4 C2 C2 | x8 | x12 | (D2 E2) F4 | x12 | x8 | x12 | %11
 (A,2 =B,2) C4 | x4 C2 C2 | x8 | x12 | (D2 C2) x4 |] %16
V:3
 [F,A,]2 [F,A,]2 [E,G,]2 [E,G,]2 | [D,A,]2 [C,C]2 [F,C]4 | [B,,B,]4 [C,G,]4 [D,B,]2 [F,C]2 | %3
 [C,C]4 [F,A,]4 | [F,A,]2 [F,A,]2 [E,G,]2 [E,G,]2 | [D,A,]2 [C,C]2 [F,C]4 | %6
 [B,,B,]4 [F,,A,]4 [G,,B,]2 [A,,C]2 | ([B,,D]2 [C,C]2) [F,A,]4 | [F,A,]4 [B,,B,]4 [C,G,]2 [D,B,]2 | %9
 [F,C]2 [A,,C]2 [C,C]4 | F,4 [C,E,]2 [D,F,]4 [A,,A,]2 | ([F,,A,]2 [G,,G,]2) [C,E,]4 | %12
 [D,F,]2 [D,F,]2 [E,G,]2 [E,G,]2 | [D,A,]2 [C,C]2 [F,C]4 | [B,,B,]4 [A,,C]4 [D,F,]2 [C,F,]2 | %15
 ([B,,F,]2 [C,E,]2) [F,,F,]4 |] %16
V:4
 x8 | x8 | x12 | x8 | x8 | x8 | x12 | x8 | x12 | x8 | F,4 x8 | x8 | x8 | x8 | x12 | x8 |] %16

